Dominus_Funeral/scalable/actions/document-properties.svg

<svg xmlns="http://www.w3.org/2000/svg" width="24" height="24" version="1"><path fill="#1a1a1a" d="M10.17.6c-.23 0-.37.24-.35.65l.07 1.59c.03.66-.48 1.1-1.13.96l-3.51-.74c-.65-.13-.9.21-.53.78l.86 1.33c.36.56.13 1.2-.5 1.4l-3.4 1.11c-.64.21-.68.63-.08.94l1.4.73c.6.3.72.96.28 1.46l-2.4 2.67c-.44.5-.26.88.4.84l1.59-.07c.67-.03 1.1.48.96 1.14l-.73 3.5c-.14.65.21.89.77.53l1.34-.86c.56-.36 1.2-.13 1.4.5l1.11 3.4c.21.64.63.67.94.08l.73-1.4c.3-.6.96-.72 1.46-.28l2.67 2.4c.5.44.88.26.85-.41l-.08-1.58c-.03-.67.48-1.1 1.14-.97l3.5.74c.65.14.9-.21.53-.77l-.85-1.34c-.36-.56-.14-1.2.5-1.4l3.4-1.11c.63-.2.67-.63.08-.94l-1.41-.73c-.6-.3-.72-.96-.27-1.46l2.39-2.67c.44-.5.26-.87-.4-.84l-1.59.07c-.67.03-1.1-.48-.96-1.13l.73-3.5c.14-.66-.2-.9-.77-.54l-1.34.86c-.56.36-1.19.13-1.4-.5l-1.1-3.4c-.22-.64-.64-.67-.95-.08l-.72 1.41c-.31.6-.97.71-1.47.27L10.67.85c-.2-.17-.36-.25-.5-.24zm1.8 10.15a1.36 1.36 0 1 1 0 2.72 1.36 1.36 0 0 1 0-2.72z"/></svg>

<?xml version="1.0" encoding="UTF-8" standalone="no"?>
<svg
   xmlns:dc="http://purl.org/dc/elements/1.1/"
   xmlns:cc="http://creativecommons.org/ns#"
   xmlns:rdf="http://www.w3.org/1999/02/22-rdf-syntax-ns#"
   xmlns:svg="http://www.w3.org/2000/svg"
   xmlns="http://www.w3.org/2000/svg"
   xmlns:sodipodi="http://sodipodi.sourceforge.net/DTD/sodipodi-0.dtd"
   xmlns:inkscape="http://www.inkscape.org/namespaces/inkscape"
   width="24"
   height="24"
   version="1"
   id="svg4"
   sodipodi:docname="document-properties.svg"
   inkscape:version="0.92.4 (5da689c313, 2019-01-14)">
  <metadata
     id="metadata10">
    <rdf:RDF>
      <cc:Work
         rdf:about="">
        <dc:format>image/svg+xml</dc:format>
        <dc:type
           rdf:resource="http://purl.org/dc/dcmitype/StillImage" />
        <dc:title></dc:title>
      </cc:Work>
    </rdf:RDF>
  </metadata>
  <defs
     id="defs8" />
  <sodipodi:namedview
     pagecolor="#ffffff"
     bordercolor="#666666"
     borderopacity="1"
     objecttolerance="10"
     gridtolerance="10"
     guidetolerance="10"
     inkscape:pageopacity="0"
     inkscape:pageshadow="2"
     inkscape:window-width="1112"
     inkscape:window-height="480"
     id="namedview6"
     showgrid="false"
     inkscape:zoom="9.8333333"
     inkscape:cx="1.0677966"
     inkscape:cy="12"
     inkscape:window-x="0"
     inkscape:window-y="25"
     inkscape:window-maximized="0"
     inkscape:current-layer="svg4" />
  <path
     d="M 10.17,0.6 C 9.94,0.6 9.8,0.84 9.82,1.25 L 9.89,2.84 C 9.92,3.5 9.41,3.94 8.76,3.8 L 5.25,3.06 C 4.6,2.93 4.35,3.27 4.72,3.84 l 0.86,1.33 c 0.36,0.56 0.13,1.2 -0.5,1.4 L 1.68,7.68 C 1.04,7.89 1,8.31 1.6,8.62 L 3,9.35 c 0.6,0.3 0.72,0.96 0.28,1.46 l -2.4,2.67 c -0.44,0.5 -0.26,0.88 0.4,0.84 l 1.59,-0.07 c 0.67,-0.03 1.1,0.48 0.96,1.14 l -0.73,3.5 c -0.14,0.65 0.21,0.89 0.77,0.53 l 1.34,-0.86 c 0.56,-0.36 1.2,-0.13 1.4,0.5 l 1.11,3.4 c 0.21,0.64 0.63,0.67 0.94,0.08 l 0.73,-1.4 c 0.3,-0.6 0.96,-0.72 1.46,-0.28 l 2.67,2.4 c 0.5,0.44 0.88,0.26 0.85,-0.41 l -0.08,-1.58 c -0.03,-0.67 0.48,-1.1 1.14,-0.97 l 3.5,0.74 c 0.65,0.14 0.9,-0.21 0.53,-0.77 l -0.85,-1.34 c -0.36,-0.56 -0.14,-1.2 0.5,-1.4 l 3.4,-1.11 c 0.63,-0.2 0.67,-0.63 0.08,-0.94 l -1.41,-0.73 c -0.6,-0.3 -0.72,-0.96 -0.27,-1.46 l 2.39,-2.67 c 0.44,-0.5 0.26,-0.87 -0.4,-0.84 L 21.31,9.85 C 20.64,9.88 20.21,9.37 20.35,8.72 l 0.73,-3.5 c 0.14,-0.66 -0.2,-0.9 -0.77,-0.54 l -1.34,0.86 c -0.56,0.36 -1.19,0.13 -1.4,-0.5 l -1.1,-3.4 C 16.25,1 15.83,0.97 15.52,1.56 L 14.8,2.97 c -0.31,0.6 -0.97,0.71 -1.47,0.27 L 10.67,0.85 C 10.47,0.68 10.31,0.6 10.17,0.61 Z m 1.8,10.15 a 1.36,1.36 0 1 1 0,2.72 1.36,1.36 0 0 1 0,-2.72 z"
     id="path2"
     inkscape:connector-curvature="0"
     style="fill:#1a1a1a" />
</svg>
